X:35
T: Das Schwabentoechterlein
N: Q0073M
O: Mitteleuropa, Deutschland (DDR) , Sachsen - Anhalt
R: Ballade, Weglaufen, Schwangerschaft, Rueckkehr
M: 6/8
L: 1/8
K: G
D | G2GF2F | G2B,C2
C | B,2CE2E | E2DD2
G | G2Bc2G | F2AB2
G | F2GA2G | B2AG2
G | G2Bc2G | F2AB2
G | F2GA2G | B2AG2

@@@ Tune index: 1090
